X: 2092
T: The Barren Rocks Of Aden
B: nick
B: to learn
M:2/4
Q: 1/4=100
K:Dmajor
V:1 
|:e|f>g fe|df Ad|ce Ad/e/|fA de|
 f>g fe|df Ad|ce Af/e/|d2 d:|
 f/g/|a>f df|ef Ae/f/|g>e ce|df Af/g/|
 a>f df|ef Ae/f/|ge cA|d2 d:|
 e|f>g fe|d/e/f/d/ Ad|c/d/e/c/ A/A/d/e/|f/f/A/A/d/d/e/e/|
 f>g fe|d/e/f/d/ Ad|c/d/e/c/ A/A/f/e/|d2 d:|
 f/g/|a/f/d/f/ a/f/d/f/|ef Ae/f/|g/e/c/e/ g/e/c/e/|df Af/g/|
 a/f/d/f/ a/f/d/f/|ef Ae/f/|ge ce|d2 d:|
% abcbook-tune_id 63455f9334f2276046230ae8


% abcbook-boost 0
% abcbook-tablature 
% abcbook-transpose 
% abcbook-lastupdated 1666004535141
% abcbook-soundfonts 
% abcbook-repeats 3


